assets/imgs/logo-clara.svg

<svg width="52" height="52" viewBox="0 0 52 52" fill="none" xmlns="http://www.w3.org/2000/svg">
<circle cx="26" cy="26" r="25" stroke="#F9F9F9" stroke-width="2"/>
<path d="M11.4924 25.2582L10 24.9065V23.9459L13.2508 23.8515H15.2664C16.4158 23.8515 17.3335 24.1117 18.0197 24.6321C18.7059 25.1467 19.049 25.9129 19.049 26.9308C19.049 28.4404 18.2856 29.3896 16.7589 29.7784C17.6623 29.99 18.3428 30.3417 18.8003 30.8334C19.2577 31.3195 19.4864 31.9199 19.4864 32.6346C19.4864 33.8412 19.109 34.7304 18.3542 35.3022C17.5994 35.8683 16.4844 36.1513 15.0091 36.1513H10V35.0963L11.4924 34.7447V25.2582ZM14.5631 29.1266C15.3865 29.1266 16.0327 28.9607 16.5016 28.6291C16.9704 28.2917 17.2049 27.7828 17.2049 27.1023C17.2049 26.5076 17.0162 26.053 16.6388 25.7385C16.2671 25.4183 15.7811 25.2582 15.1807 25.2582H13.2508V29.1266H14.5631ZM15.0949 34.7447C15.924 34.7447 16.5559 34.5731 16.9905 34.23C17.425 33.8812 17.6423 33.3809 17.6423 32.729C17.6423 31.8884 17.385 31.2966 16.8704 30.9535C16.3557 30.6104 15.5866 30.4389 14.5631 30.4389H13.2508V34.7447H15.0949Z" fill="#F9F9F9"/>
<path d="M24.2245 34.393C24.2703 34.4159 24.376 34.4645 24.5419 34.5388C24.7077 34.6074 24.9336 34.6732 25.2195 34.7361C25.5054 34.799 25.817 34.8304 26.1544 34.8304C26.8577 34.8304 27.481 34.6646 28.0242 34.3329C28.5732 34.0013 28.8476 33.541 28.8476 32.952C28.8476 32.5746 28.7304 32.2601 28.496 32.0085C28.2615 31.7512 27.9699 31.5425 27.6211 31.3824C27.278 31.2223 26.8034 31.0307 26.1973 30.8077C25.4025 30.5275 24.7592 30.2645 24.2674 30.0186C23.7814 29.7727 23.3639 29.4182 23.0151 28.955C22.672 28.4918 22.5005 27.8971 22.5005 27.1709C22.5005 26.0102 22.895 25.1381 23.6841 24.5549C24.479 23.9716 25.4739 23.68 26.669 23.68C27.1608 23.68 27.6811 23.7343 28.2301 23.843C28.779 23.9459 29.2479 24.0545 29.6368 24.1689C30.0256 24.2775 30.2715 24.349 30.3744 24.3833L30.2886 27.3682H29.1478L28.5474 25.4898C28.5017 25.4784 28.3902 25.4469 28.2129 25.3955C28.0357 25.3383 27.8069 25.2868 27.5268 25.2411C27.2466 25.1953 26.9664 25.1724 26.6862 25.1724C25.9371 25.1724 25.3596 25.3411 24.9536 25.6785C24.5476 26.0102 24.3446 26.4104 24.3446 26.8793C24.3446 27.2567 24.4618 27.5741 24.6963 27.8314C24.9307 28.083 25.2223 28.2917 25.5711 28.4575C25.9257 28.6234 26.4203 28.8178 27.055 29.0408C27.8155 29.3095 28.4388 29.564 28.9248 29.8042C29.4109 30.0443 29.8226 30.3846 30.16 30.8248C30.5031 31.2594 30.6746 31.8112 30.6746 32.4803C30.6746 33.3208 30.4687 34.0327 30.057 34.616C29.6453 35.1935 29.0907 35.6224 28.3931 35.9026C27.7012 36.1828 26.9321 36.3229 26.0858 36.3229C25.5368 36.3229 24.9965 36.2714 24.4647 36.1685C23.9329 36.0655 23.4897 35.9598 23.1352 35.8511C22.7864 35.7368 22.5634 35.6624 22.4662 35.6281V32.5489H23.8728L24.2245 34.393Z" fill="#F9F9F9"/>
<path d="M40.6791 29.2123V30.619H36.6392V34.7447L38.3976 35.0963V36.1513H33.3027V35.0963L34.7951 34.7447V25.2582L33.3027 24.9065V23.9459L36.6392 23.8515H42V26.7507H40.8592L40.4132 25.2582H36.6392V29.2123H40.6791Z" fill="#F9F9F9"/>
<path d="M33.5669 17.2215C33.7042 17.0155 33.801 16.8073 33.8563 16.5981C34.1699 15.4105 33.8744 14.0569 33.8617 13.9997C33.8321 13.8673 33.7369 13.7551 33.6043 13.697C33.5176 13.6589 33.4215 13.6472 33.3287 13.6608C33.4552 13.2822 33.494 12.9293 33.4433 12.6059C33.254 11.396 32.4323 10.242 32.3976 10.1934C32.3164 10.0806 32.1826 10.0093 32.036 10.0008C31.8891 9.99241 31.747 10.0477 31.6512 10.1503C31.6368 10.1657 31.2946 10.5345 30.9747 11.0524C30.5221 11.7849 30.3374 12.4429 30.4259 13.0081C30.4283 13.024 30.4314 13.0399 30.434 13.0557C30.3333 12.9853 30.2688 12.9442 30.2578 12.9372C30.1378 12.8615 29.9867 12.8415 29.8485 12.8826C29.7102 12.9239 29.6005 13.0219 29.5516 13.1479C29.5443 13.1669 29.3698 13.6198 29.2747 14.2042C29.1403 15.0307 29.2265 15.7019 29.531 16.1991C29.8723 16.7567 30.3698 17.242 30.7724 17.582C30.7758 17.6282 30.7797 17.6733 30.7839 17.7175C30.6195 17.8089 30.4737 17.9121 30.3487 18.0274C29.5981 18.7205 29.1375 19.6866 28.9722 20.0752C28.0773 20.5783 27.0505 20.8437 25.9932 20.8437C24.9424 20.8437 23.9228 20.582 23.0319 20.0852C22.8705 19.7036 22.4085 18.7266 21.6513 18.0276C21.5262 17.9121 21.3805 17.8089 21.2161 17.7176C21.2203 17.6733 21.2242 17.6282 21.2276 17.582C21.6309 17.2413 22.128 16.7561 22.469 16.1992C22.7734 15.7019 22.8597 15.0307 22.7251 14.2042C22.6302 13.6198 22.4557 13.1669 22.4483 13.1479C22.3993 13.0219 22.2897 12.9239 22.1515 12.8826C22.0132 12.8414 21.8621 12.8615 21.7422 12.9372C21.7311 12.9442 21.6662 12.9855 21.5651 13.0563C21.5674 13.0426 21.57 13.029 21.5722 13.0153C21.6606 12.4501 21.476 11.7921 21.0234 11.0596C20.7033 10.5417 20.3611 10.173 20.3467 10.1575C20.251 10.0549 20.1087 9.9996 19.9619 10.008C19.8153 10.0165 19.6815 10.0878 19.6005 10.2006C19.5656 10.2492 18.744 11.4032 18.5547 12.6131C18.5044 12.9343 18.5421 13.2844 18.6664 13.6599C18.5752 13.6474 18.481 13.6594 18.3957 13.6969C18.2631 13.7551 18.1679 13.8673 18.1383 13.9997C18.1256 14.0568 17.8301 15.4104 18.1437 16.5981C18.199 16.8072 18.2958 17.0154 18.4331 17.2215C18.2881 17.2318 18.1564 17.3032 18.0766 17.4154C17.9962 17.5284 17.978 17.6697 18.0272 17.797C18.0485 17.8518 18.558 19.1503 19.4945 20.015C19.9323 20.4191 20.6101 20.6759 21.5094 20.7779C21.8344 20.8149 22.1291 20.8241 22.3424 20.8241C22.4206 20.8241 22.4877 20.8229 22.5415 20.8212C23.5801 21.4015 24.7687 21.7074 25.9932 21.7074C27.2174 21.7074 28.4068 21.4012 29.4455 20.8208C29.5013 20.8225 29.573 20.824 29.6576 20.824C29.8709 20.824 30.1656 20.8148 30.4906 20.7779C31.3899 20.6759 32.0678 20.4191 32.5056 20.015V20.0149C33.4421 19.1503 33.9515 17.8518 33.9728 17.797C34.022 17.6697 34.0038 17.5284 33.9234 17.4154C33.8436 17.3032 33.7119 17.2318 33.5669 17.2215V17.2215ZM19.6814 17.2685C19.3428 16.9677 19.1266 16.6671 19.0546 16.394C18.9114 15.8518 18.9239 15.2456 18.9654 14.8039C19.2311 14.9771 19.5225 15.1969 19.758 15.4418C19.7737 15.462 19.7914 15.4811 19.8111 15.4988C19.9942 15.7 20.1368 15.9164 20.1949 16.1368C20.2979 16.5269 20.3164 16.9501 20.3035 17.3091C20.2992 17.3314 20.2972 17.354 20.2968 17.3765C20.1053 17.3315 19.8999 17.2955 19.6814 17.2685V17.2685ZM21.7428 14.0389C21.8664 14.5869 21.9344 15.3141 21.6524 15.7749C21.5229 15.9863 21.3631 16.1875 21.1944 16.3723C21.173 16.2252 21.1441 16.0779 21.1057 15.9327C21.0357 15.6669 20.898 15.403 20.6957 15.1426C20.7044 15.1292 20.7133 15.1151 20.7223 15.1008C21.0166 14.6735 21.4208 14.2998 21.7428 14.0389ZM19.4825 12.7363C19.5688 12.1848 19.8249 11.6276 20.0418 11.2323C20.3747 11.7094 20.7257 12.3711 20.6442 12.8921C20.5578 13.4441 20.2985 13.9955 20.0795 14.3844C19.7493 13.9147 19.4005 13.26 19.4825 12.7363ZM20.158 19.4049C19.7306 19.0104 19.4002 18.4865 19.187 18.0891C19.6009 18.1158 20.0927 18.1869 20.4927 18.3447C20.5147 18.3557 20.5378 18.3654 20.5618 18.3732C20.7262 18.4442 20.8725 18.5313 20.9876 18.6376C21.4151 19.0322 21.7384 19.5545 21.9446 19.9494C21.3387 19.9116 20.5611 19.7771 20.158 19.4049ZM31.6993 17.3774C31.6815 17.0048 31.6953 16.5521 31.805 16.1369C31.8664 15.9041 32.0229 15.6752 32.2224 15.464C32.2241 15.4622 32.2259 15.4604 32.2275 15.4586C32.4655 15.2077 32.7638 14.9819 33.0353 14.8045C33.0768 15.2453 33.089 15.85 32.9453 16.394C32.8731 16.6672 32.6571 16.9677 32.3185 17.2685C32.0985 17.2956 31.8919 17.332 31.6993 17.3774V17.3774ZM31.9561 11.225C32.1731 11.6204 32.4292 12.1777 32.5154 12.7291C32.597 13.2503 32.2477 13.9062 31.9173 14.3767C31.6988 13.989 31.4404 13.4389 31.3537 12.8849C31.2722 12.3638 31.6233 11.7021 31.9561 11.225V11.225ZM30.3475 15.7748C30.0667 15.3163 30.135 14.5878 30.2581 14.0389C30.5896 14.3073 31.0083 14.6955 31.3053 15.1412C31.1024 15.402 30.9643 15.6664 30.894 15.9327C30.8557 16.0778 30.8269 16.2251 30.8055 16.3723C30.6368 16.1876 30.477 15.9863 30.3475 15.7748V15.7748ZM31.8419 19.4049C31.4388 19.7771 30.6611 19.9117 30.0553 19.9494C30.2616 19.5544 30.5848 19.0322 31.0123 18.6376C31.3476 18.3279 31.9466 18.1814 32.4916 18.118C32.5434 18.1208 32.5958 18.1152 32.6463 18.102C32.703 18.0968 32.7586 18.0926 32.8128 18.0891C32.5997 18.4865 32.2693 19.0104 31.8419 19.4049Z" fill="#F8A06F"/>
</svg>

<svg width="52" height="52" fill="none" xmlns="http://www.w3.org/2000/svg"><circle cx="26" cy="26" r="25" stroke="#F9F9F9" stroke-width="2"/><path d="M11.492 25.258L10 24.907v-.961l3.25-.095h2.016c1.15 0 2.068.26 2.754.781.686.515 1.029 1.28 1.029 2.299 0 1.51-.763 2.459-2.29 2.847.903.212 1.584.564 2.041 1.055.458.487.686 1.087.686 1.802 0 1.206-.377 2.095-1.132 2.667-.755.566-1.87.85-3.345.85H10v-1.056l1.492-.351v-9.487zm3.071 3.869c.823 0 1.47-.166 1.939-.498.468-.337.703-.846.703-1.527 0-.594-.189-1.049-.566-1.364-.372-.32-.858-.48-1.458-.48h-1.93v3.869h1.312zm.532 5.618c.829 0 1.46-.172 1.896-.515.434-.349.651-.85.651-1.501 0-.84-.257-1.432-.772-1.776-.514-.343-1.283-.514-2.307-.514h-1.312v4.306h1.844zM24.224 34.393c.046.023.152.072.318.146.166.068.392.134.677.197.286.063.598.094.935.094.704 0 1.327-.165 1.87-.497.55-.332.824-.792.824-1.381 0-.377-.118-.692-.352-.944a2.676 2.676 0 00-.875-.626c-.343-.16-.818-.351-1.424-.574-.794-.28-1.438-.543-1.93-.79a3.583 3.583 0 01-1.252-1.063c-.343-.463-.515-1.058-.515-1.784 0-1.16.395-2.033 1.184-2.616.795-.583 1.79-.875 2.985-.875.492 0 1.012.054 1.561.163.549.103 1.018.212 1.407.326.389.108.634.18.737.214l-.085 2.985h-1.141l-.6-1.878a13.154 13.154 0 01-.335-.095 4.83 4.83 0 00-.686-.154 5.203 5.203 0 00-.84-.069c-.75 0-1.327.17-1.733.506-.406.332-.61.732-.61 1.201 0 .378.118.695.352.952.235.252.526.46.875.627.355.165.85.36 1.484.583.76.268 1.384.523 1.87.763.486.24.898.58 1.235 1.02.343.435.515.987.515 1.656 0 .84-.206 1.553-.618 2.136a3.672 3.672 0 01-1.664 1.287c-.692.28-1.46.42-2.307.42-.55 0-1.09-.052-1.621-.154a13.223 13.223 0 01-1.33-.318 41.627 41.627 0 01-.669-.223v-3.08h1.407l.351 1.845zM40.68 29.212v1.407h-4.04v4.126l1.758.351v1.055h-5.095v-1.055l1.492-.351v-9.487l-1.492-.351v-.961l3.336-.095H42v2.9h-1.14l-.447-1.493H36.64v3.954h4.04z" fill="#F9F9F9"/><path d="M33.567 17.221c.137-.206.234-.414.29-.623.313-1.187.017-2.541.005-2.598a.44.44 0 00-.258-.303.505.505 0 00-.275-.036c.126-.379.165-.732.114-1.055-.189-1.21-1.01-2.364-1.045-2.413a.479.479 0 00-.362-.192.489.489 0 00-.385.15 6.315 6.315 0 00-.676.901c-.453.733-.638 1.39-.55 1.956l.009.048c-.1-.07-.165-.112-.176-.119a.503.503 0 00-.41-.054.453.453 0 00-.296.265c-.008.019-.182.472-.277 1.056-.135.827-.048 1.498.256 1.995.341.558.839 1.043 1.241 1.383l.012.136c-.165.09-.31.194-.435.31-.75.693-1.212 1.659-1.377 2.047a6.077 6.077 0 01-2.979.769c-1.05 0-2.07-.262-2.961-.759-.162-.381-.623-1.358-1.38-2.057a2.245 2.245 0 00-.436-.31l.012-.136c.403-.34.9-.826 1.241-1.383.304-.497.39-1.168.256-1.995a5.753 5.753 0 00-.277-1.056.454.454 0 00-.297-.265.503.503 0 00-.409.054 4.749 4.749 0 00-.177.12l.007-.042c.089-.565-.096-1.223-.549-1.955a6.332 6.332 0 00-.676-.902.489.489 0 00-.385-.15.478.478 0 00-.361.193c-.035.048-.857 1.202-1.046 2.412-.05.321-.013.671.111 1.047a.504.504 0 00-.27.037.44.44 0 00-.258.303c-.012.057-.308 1.41.006 2.598.055.21.152.417.29.623a.477.477 0 00-.357.194.403.403 0 00-.05.382c.021.055.531 1.353 1.467 2.218.438.404 1.116.66 2.015.763a7.47 7.47 0 001.032.043 7.073 7.073 0 003.452.886 7.075 7.075 0 003.453-.886 7.491 7.491 0 001.045-.043c.899-.102 1.577-.359 2.015-.763.936-.865 1.446-2.163 1.467-2.218a.403.403 0 00-.05-.382.477.477 0 00-.356-.194zm-13.886.047c-.338-.3-.554-.6-.626-.874-.144-.542-.131-1.148-.09-1.59.266.173.558.393.793.638.016.02.033.04.053.057.183.201.326.417.384.638.103.39.121.813.108 1.172a.393.393 0 00-.006.067 5.81 5.81 0 00-.616-.108zm2.062-3.23c.123.549.191 1.276-.09 1.737-.13.211-.29.412-.459.597a3.937 3.937 0 00-.088-.44 2.22 2.22 0 00-.41-.79l.026-.041c.295-.428.699-.801 1.02-1.062zm-2.26-1.302c.086-.551.342-1.108.559-1.504.333.477.684 1.14.602 1.66-.086.552-.345 1.104-.564 1.492-.33-.47-.68-1.124-.597-1.648zm.675 6.669c-.427-.395-.758-.919-.971-1.316.414.027.906.098 1.306.256a1.504 1.504 0 01.495.293c.427.394.75.916.957 1.311-.606-.037-1.384-.172-1.787-.544zm11.541-2.028c-.018-.372-.004-.825.106-1.24.061-.233.218-.462.417-.673l.005-.005c.239-.251.537-.477.808-.654.042.44.054 1.045-.09 1.589-.072.273-.288.574-.627.875-.22.027-.426.063-.619.108zm.257-6.152c.217.395.473.953.56 1.504.081.521-.268 1.177-.599 1.648-.218-.388-.477-.938-.563-1.492-.082-.521.27-1.183.602-1.66zm-1.608 4.55c-.281-.459-.213-1.187-.09-1.736.332.268.75.656 1.047 1.102-.203.261-.34.525-.411.792a3.95 3.95 0 00-.088.44 3.993 3.993 0 01-.459-.598zm1.494 3.63c-.403.372-1.18.507-1.787.544.207-.395.53-.917.957-1.311.336-.31.935-.457 1.48-.52a.505.505 0 00.154-.016 6.19 6.19 0 01.167-.013c-.213.398-.544.921-.971 1.316z" fill="#F8A06F"/></svg>
